svg/food/drink_fill.svg

<?xml version="1.0" encoding="UTF-8"?>
<svg width="24px" height="24px" viewBox="0 0 24 24" version="1.1" xmlns="http://www.w3.org/2000/svg" xmlns:xlink="http://www.w3.org/1999/xlink">
    <title>drink_fill</title>
    <g id="页面-1" stroke="none" stroke-width="1" fill="none" fill-rule="evenodd">
        <g id="Food" transform="translate(-144.000000, -48.000000)">
            <g id="drink_fill" transform="translate(144.000000, 48.000000)">
                 <path d="M24,0 L24,24 L0,24 L0,0 L24,0 Z M12.5934901,23.257841 L12.5819402,23.2595131 L12.5108777,23.2950439 L12.4918791,23.2987469 L12.4918791,23.2987469 L12.4767152,23.2950439 L12.4056548,23.2595131 C12.3958229,23.2563662 12.3870493,23.2590235 12.3821421,23.2649074 L12.3780323,23.275831 L12.360941,23.7031097 L12.3658947,23.7234994 L12.3769048,23.7357139 L12.4804777,23.8096931 L12.4953491,23.8136134 L12.4953491,23.8136134 L12.5071152,23.8096931 L12.6106902,23.7357139 L12.6232938,23.7196733 L12.6232938,23.7196733 L12.6266527,23.7031097 L12.609561,23.275831 C12.6075724,23.2657013 12.6010112,23.2592993 12.5934901,23.257841 L12.5934901,23.257841 Z M12.8583906,23.1452862 L12.8445485,23.1473072 L12.6598443,23.2396597 L12.6498822,23.2499052 L12.6498822,23.2499052 L12.6471943,23.2611114 L12.6650943,23.6906389 L12.6699349,23.7034178 L12.6699349,23.7034178 L12.678386,23.7104931 L12.8793402,23.8032389 C12.8914285,23.8068999 12.9022333,23.8029875 12.9078286,23.7952264 L12.9118235,23.7811639 L12.8776777,23.1665331 C12.8752882,23.1545897 12.8674102,23.1470016 12.8583906,23.1452862 L12.8583906,23.1452862 Z M12.1430473,23.1473072 C12.1332178,23.1423925 12.1221763,23.1452606 12.1156365,23.1525954 L12.1099173,23.1665331 L12.0757714,23.7811639 C12.0751323,23.7926639 12.0828099,23.8018602 12.0926481,23.8045676 L12.108256,23.8032389 L12.3092106,23.7104931 L12.3186497,23.7024347 L12.3186497,23.7024347 L12.3225043,23.6906389 L12.340401,23.2611114 L12.337245,23.2485176 L12.337245,23.2485176 L12.3277531,23.2396597 L12.1430473,23.1473072 Z" id="MingCute" fill-rule="nonzero"></path>
                <path d="M13.8154,3.57896 C14.1351,3.12862 14.0292,2.50437 13.5789,2.18467 C13.1285,1.86496 12.5043,1.97086 12.1846,2.4212 L11.1846,3.82981 C11.1459,3.8843 11.1135,3.94133 11.0871,4.00006 L7.5,4.00006 C6.67157,4.00006 6,4.67164 6,5.50006 L6,7.00006 C6,7.0284 6.00118,7.05645 6.00349,7.08419 C5.41907,7.28912 5,7.84565 5,8.50006 L5,10.0001 C5,10.5507 5.44502,10.9974 5.99501,11.0001 L6.91491,20.1991 C7.01715,21.2215 7.87748,22.0001 8.90499,22.0001 L15.095,22.0001 C16.1225,22.0001 16.9828,21.2215 17.0851,20.1991 L18.005,11.0001 C18.555,10.9974 19,10.5507 19,10.0001 L19,8.50006 C19,7.84565 18.5809,7.28912 17.9965,7.08419 C17.9988,7.05646 18,7.0284 18,7.00006 L18,5.50006 C18,4.67164 17.3284,4.00006 16.5,4.00006 L13.5165,4.00006 L13.8154,3.57896 Z M8,7.00006 L8,6.00006 L16,6.00006 L16,7.00006 L8,7.00006 Z" id="形状" fill="#09244B"></path>
            </g>
        </g>
    </g>
</svg>

<svg xmlns="http://www.w3.org/2000/svg" width="24" height="24"><g fill="none" fill-rule="evenodd"><path d="M24 0v24H0V0h24ZM12.593 23.258l-.011.002-.071.035-.02.004-.014-.004-.071-.035c-.01-.004-.019-.001-.024.005l-.004.01-.017.428.005.02.01.013.104.074.015.004.012-.004.104-.074.012-.016.004-.017-.017-.427c-.002-.01-.009-.017-.017-.018Zm.265-.113-.013.002-.185.093-.01.01-.003.011.018.43.005.012.008.007.201.093c.012.004.023 0 .029-.008l.004-.014-.034-.614c-.003-.012-.01-.02-.02-.022Zm-.715.002a.023.023 0 0 0-.027.006l-.006.014-.034.614c0 .012.007.02.017.024l.015-.002.201-.093.01-.008.004-.011.017-.43-.003-.012-.01-.01-.184-.092Z"/><path fill="#09244B" d="M13.815 3.579a1 1 0 0 0-1.63-1.158l-1 1.409a1.006 1.006 0 0 0-.098.17H7.5A1.5 1.5 0 0 0 6 5.5V7l.003.084A1.5 1.5 0 0 0 5 8.5V10a1 1 0 0 0 .995 1l.92 9.2a2 2 0 0 0 1.99 1.8h6.19a2 2 0 0 0 1.99-1.8l.92-9.2A1 1 0 0 0 19 10V8.5a1.5 1.5 0 0 0-1.003-1.416L18 7V5.5A1.5 1.5 0 0 0 16.5 4h-2.983l.298-.421ZM8 7V6h8v1H8Z"/></g></svg>
